Obsidian-SemiLight/actions/22s/insert-more-mark.svg

<svg viewBox="0 0 22 22" xmlns="http://www.w3.org/2000/svg"><path d="m3 3v1h16v-1zm0 2v1h9v-1zm0 10v1h16v-1zm0 2v1h13v-1zm14 1v1h2v-1z" fill="#4d4d4d"/><path d="m3 10v1h16v-1z" fill="#3daee9"/></svg>

<svg xmlns="http://www.w3.org/2000/svg" viewBox="0 0 22 22">
  <defs id="defs3051">
    <style type="text/css" id="current-color-scheme">
      .ColorScheme-Text {
        color:#4d4d4d;
      }
      .ColorScheme-Highlight {
        color:#3daee9;
      }
      </style>
  </defs>
 <path 
     style="fill:currentColor;fill-opacity:1;stroke:none" 
     d="M 3 3 L 3 4 L 19 4 L 19 3 L 3 3 z M 3 5 L 3 6 L 12 6 L 12 5 L 3 5 z M 3 15 L 3 16 L 19 16 L 19 15 L 3 15 z M 3 17 L 3 18 L 16 18 L 16 17 L 3 17 z M 17 18 L 17 19 L 19 19 L 19 18 L 17 18 z "
     class="ColorScheme-Text"
     />
 <path 
     style="fill:currentColor;fill-opacity:1;stroke:none" 
     d="M 3 10 L 3 11 L 19 11 L 19 10 L 3 10 z "
     class="ColorScheme-Highlight"
     />
</svg>
